Numix-GalliumOS/64/mimetypes/application-pdf.svg

<svg xmlns="http://www.w3.org/2000/svg" xmlns:xlink="http://www.w3.org/1999/xlink" width="64px" height="64px" viewBox="0 0 64 64" version="1.1">
<g id="surface1">
<path style=" stroke:none;fill-rule:nonzero;fill:rgb(87.45098%,9.411765%,9.411765%);fill-opacity:1;" d="M 10.671875 0 C 9.296875 0 8 1.355469 8 2.789062 L 8 61.210938 C 8 62.566406 9.375 64 10.671875 64 L 53.328125 64 C 54.625 64 56 62.566406 56 61.210938 L 56 18 L 38 0 Z M 10.671875 0 "/>
<path style=" stroke:none;fill-rule:nonzero;fill:rgb(0%,0%,0%);fill-opacity:0.196078;" d="M 42 18 L 56 32 L 56 18 Z M 42 18 "/>
<path style=" stroke:none;fill-rule:nonzero;fill:rgb(100%,100%,100%);fill-opacity:0.392157;" d="M 38 0 L 55.984375 18 L 40.757812 18 C 39.410156 18 38 16.574219 38 15.226562 Z M 38 0 "/>
<path style=" stroke:none;fill-rule:nonzero;fill:rgb(100%,100%,100%);fill-opacity:1;" d="M 31.375 21.351562 C 31.375 21.351562 32.296875 29.84375 25.789062 41.0625 C 19.28125 52.273438 17.367188 50.765625 16.6875 50.382812 C 16 49.992188 15.117188 48.726562 18.007812 46.203125 C 20.890625 43.679688 22.015625 43.726562 22.015625 43.726562 C 22.015625 43.726562 19.375 45.328125 18.351562 46.882812 C 17.320312 48.4375 16.492188 49.40625 16.734375 49.84375 C 16.976562 50.28125 19.929688 48.054688 21.148438 46.164062 C 23.09375 43.15625 26.765625 37.5625 28.476562 32.226562 C 30.1875 26.882812 31.375 21.351562 31.375 21.351562 Z M 31.375 21.351562 "/>
<path style=" stroke:none;fill-rule:nonzero;fill:rgb(100%,100%,100%);fill-opacity:1;" d="M 47.414062 41.007812 C 47.414062 41.007812 47.265625 41.398438 45.554688 41.257812 C 43.84375 41.109375 37.1875 39.023438 33.617188 34.75 C 30.046875 30.476562 29.75 24.601562 29.507812 21.546875 C 29.257812 18.492188 30.617188 19.34375 30.8125 19.726562 C 31.117188 19.984375 31.265625 20.820312 31.265625 20.820312 C 31.265625 20.820312 31.15625 19.570312 30.617188 19.03125 C 30.078125 18.5 29.601562 18.492188 29.0625 19.414062 C 28.523438 20.335938 28.28125 22.90625 28.71875 25.382812 C 29.164062 27.859375 30.976562 33.539062 33.226562 36.15625 C 35.476562 38.78125 39.976562 41.0625 43.304688 41.742188 C 46.632812 42.421875 47.414062 41.015625 47.414062 41.015625 Z M 47.414062 41.007812 "/>
<path style=" stroke:none;fill-rule:nonzero;fill:rgb(100%,100%,100%);fill-opacity:1;" d="M 25.734375 42.125 C 25.734375 42.125 32.195312 40.039062 38.3125 39.460938 C 44.429688 38.875 46.539062 39.507812 47.070312 39.945312 C 47.609375 40.382812 47.609375 40.867188 47.609375 40.867188 C 47.609375 40.867188 48.296875 40.1875 47.84375 39.5 C 47.460938 38.78125 46.875 38.195312 42.03125 38.34375 C 37.1875 38.484375 36.84375 38.679688 32.390625 39.507812 C 27.9375 40.335938 25.734375 42.125 25.734375 42.125 Z M 25.734375 42.125 "/>
</g>
</svg>

<svg xmlns="http://www.w3.org/2000/svg" viewBox="0 0 64 64">
 <g>
  <path d="m 10.672 0 c -1.375 0 -2.672 1.355 -2.672 2.789 l 0 58.42 c 0 1.355 1.375 2.789 2.672 2.789 l 42.656 0 c 1.297 0 2.672 -1.434 2.672 -2.789 l 0 -43.21 l -18 -18 m -27.328 0" style="fill:#de1818;fill-opacity:1;stroke:none;fill-rule:nonzero"/>
  <path d="m 42 18 l 14 14 l 0 -14 m -14 0" style="fill:#000;fill-opacity:0.196;stroke:none;fill-rule:nonzero"/>
  <path d="m 38 0 l 17.984 18 l -15.227 0 c -1.348 0 -2.758 -1.426 -2.758 -2.773 m 0 -15.227" style="fill:#fff;fill-opacity:0.392;stroke:none;fill-rule:nonzero"/>
  <path d="m 31.375 21.352 c 0 0 0.922 8.492 -5.586 19.711 c -6.508 11.211 -8.422 9.703 -9.102 9.32 c -0.688 -0.391 -1.57 -1.656 1.32 -4.18 c 2.883 -2.523 4.01 -2.477 4.01 -2.477 c 0 0 -2.641 1.602 -3.664 3.156 c -1.031 1.555 -1.859 2.523 -1.617 2.961 c 0.242 0.438 3.195 -1.789 4.414 -3.68 c 1.945 -3.01 5.617 -8.602 7.328 -13.938 c 1.711 -5.344 2.898 -10.875 2.898 -10.875 m 0 0" style="fill:#fff;fill-opacity:1;stroke:none;fill-rule:nonzero"/>
  <path d="m 47.41 41.01 c 0 0 -0.148 0.391 -1.859 0.25 c -1.711 -0.148 -8.367 -2.234 -11.938 -6.508 c -3.57 -4.273 -3.867 -10.148 -4.109 -13.203 c -0.25 -3.055 1.109 -2.203 1.305 -1.82 c 0.305 0.258 0.453 1.094 0.453 1.094 c 0 0 -0.109 -1.25 -0.648 -1.789 c -0.539 -0.531 -1.016 -0.539 -1.555 0.383 c -0.539 0.922 -0.781 3.492 -0.344 5.969 c 0.445 2.477 2.258 8.156 4.508 10.773 c 2.25 2.625 6.75 4.906 10.08 5.586 c 3.328 0.68 4.109 -0.727 4.109 -0.727 m 0 -0.008" style="fill:#fff;fill-opacity:1;stroke:none;fill-rule:nonzero"/>
  <path d="m 25.734 42.13 c 0 0 6.461 -2.086 12.578 -2.664 c 6.117 -0.586 8.227 0.047 8.758 0.484 c 0.539 0.438 0.539 0.922 0.539 0.922 c 0 0 0.688 -0.68 0.234 -1.367 c -0.383 -0.719 -0.969 -1.305 -5.813 -1.156 c -4.844 0.141 -5.188 0.336 -9.641 1.164 c -4.453 0.828 -6.656 2.617 -6.656 2.617 m 0 0" style="fill:#fff;fill-opacity:1;stroke:none;fill-rule:nonzero"/>
 </g>
</svg>
